src/election_redbackground.svg

<svg viewBox="0 0 150 187" fill="none" xmlns="http://www.w3.org/2000/svg"><g clip-path="url(#election_redbackground_svg__clip0_371_756)"><path d="M150 27.689L40.9717 89.997V76.153L150 13.844V27.689Z" fill="#BE2C25"/><path d="M150 55.38L40.9717 117.684V103.845L150 41.535V55.38Z" fill="#BE2C25"/><path d="M150 83.072L40.9717 145.373V131.529L150 69.23V83.072Z" fill="#BE2C25"/><path d="M149.995 0V13.84C113.657 34.615 77.3142 55.3853 40.9658 76.151V62.311C74.6817 43.0467 108.388 23.7843 142.086 4.52396C144.603 3.08534 147.104 1.64771 149.62 0.210091C149.74 0.150065 149.875 0.0750325 149.995 0Z" fill="white"/><path d="M40.9717 103.845L150 41.535V27.689L40.9717 89.997V103.845Z" fill="white"/><path d="M40.9717 131.529L150 69.23V55.38L40.9717 117.684V131.529Z" fill="white"/><path d="M40.9717 159.217L150 96.917V83.072L40.9717 145.373V159.217Z" fill="white"/><path d="M40.9717 186.902L150 124.607V110.762L40.9717 173.06V186.902Z" fill="white"/><path d="M150 110.762L40.9717 173.06V159.217L150 96.917V110.762Z" fill="#BE2C25"/><path d="M0 38.6708C4.52396 41.2569 12.9056 46.2871 40.9658 62.311L40.9718 186.902C8.3036 168.24 32.7002 181.671 0.00700303 163.008" fill="#0A3257"/></g><defs><clipPath id="election_redbackground_svg__clip0_371_756"><rect width="150" height="186.902" fill="white"/></clipPath></defs></svg>

<svg viewBox="0 0 150 187" fill="none" xmlns="http://www.w3.org/2000/svg"><g clip-path="url(#election_redbackground_svg__clip0_371_756)"><path d="M150 27.689 40.972 89.997V76.153L150 13.844v13.845Zm0 27.691L40.972 117.684v-13.839L150 41.535V55.38Zm0 27.692L40.972 145.373v-13.844L150 69.23v13.842Z" fill="#BE2C25"/><path d="M149.995 0v13.84c-36.338 20.775-72.68 41.545-109.03 62.311v-13.84c33.717-19.264 67.423-38.527 101.121-57.787 2.517-1.439 5.018-2.876 7.534-4.314.12-.06.255-.135.375-.21ZM40.972 103.845 150 41.535V27.689L40.972 89.997v13.848Zm0 27.684L150 69.23V55.38L40.972 117.684v13.845Zm0 27.688L150 96.917V83.072L40.972 145.373v13.844Zm0 27.685L150 124.607v-13.845L40.972 173.06v13.842Z" fill="white"/><path d="M150 110.762 40.972 173.06v-13.843L150 96.917v13.845Z" fill="#BE2C25"/><path d="M0 38.67c4.524 2.587 12.906 7.617 40.966 23.641l.006 124.591C8.304 168.24 32.7 181.671.007 163.008" fill="#0A3257"/></g><defs><clipPath id="election_redbackground_svg__clip0_371_756"><path fill="white" d="M0 0h150v186.902H0z"/></clipPath></defs></svg>
